X:1
T:Hommage à Haydn
T:Hommage à Haydn
T:Claude Debussy
T:Pour le Piano
T:Centenaire d'Haydn (mai 1909)
C:Claude Debussy
%%score { ( 1 3 4 ) | ( 2 5 6 7 ) }
L:1/8
Q:1/4=70
M:5/4
K:G
V:1 treble nm="Piano" snm="Pno."
V:3 treble 
V:4 treble 
V:2 bass 
V:5 bass 
V:6 bass 
V:7 bass 
V:1
"^T" B2 A2 d2 d2 g2 |[M:3/4][Q:1/4=75]"^Mouvement de valse lente" z2!p! (.[G,_D=F]2 .[G,CF]2 | %2
w: H A Y D N||
 z2 .[G,_B,=F]2 .[G,B,_E]2 |!>(! z2 .[_B,_D_A]2 .[B,DA]2!>)! | z2 .[_B,_F_A]2 .[B,_E_G]2) | %5
w: |||
!p! z2 (.[=G,_D=F]2 .[G,CF]2 |!<(! z2 .[G,_B,=F]2 .[G,B,_E]2)!<)! |!pp! z2!<(! !tenuto![A,CG]4- | %8
w: |||
 z2!<)!!p! (!tenuto!B4- |!<(! B4 A2!<)! |!>(! d4- d>d!>)! | g6-) | g6- | g4 z2 | %14
w: ||||||
"^Rit."[Q:1/4=65]"^T" D2 z2 z2 |!p!"^a Tempo" z2[Q:1/4=75]"^T" (.[G,_D=F]2 .[G,CF]2 | %16
w: ||
 z2 .[G,_B,=F]2 .[G,B,_E]2) | z2 z2 (!tenuto!B2- |!<(! B4 A2!<)! |!>(! d4- d>!>)!d | g6-) | %21
w: |||||
 g2 z2 z2 | z6 || %23
w: ||
[M:3/8][Q:1/4=140]"^Vif""^(Une mesure équivaut à un temps\ndu mouvt précédent)\n"!p![Q:1/4=120]"^T" z B/(A/d/)(d/ | %24
w: |
!<(!g) b/(a/d'/)d'/!<)! |!>(! (g'/d'/b/a/ g/d/!>)! |B/A/ G/D/B,/[I:staff +1]F,/) | %27
w: |||
!p![I:staff -1] z B/(A/d/)(d/ |!<(!g) b/(a/d'/)d'/!<)! |!>(! (g'/d'/b/a/ g/d/!>)! | %30
w: |||
B/A/ G/D/B,/A,/-) |!p! [B,^DG]3 | ([B,^CGB]3 |!<(! [=CE]3!<)! | [_B,=F]3) |!p! z (B/A/d/d/ | %36
w: ||||||
g) (b/a/d'/d'/ |!<(! g'/d'/b/a/ g/d/ |B/A/)!<)! z2 |!p! z (B/A/d/d/ |g) (b/a/d'/d'/ | %41
w: |||||
 g'/d'/b/a/ g/d/ |B/!<(!A/) z2!<)! |"^crescendo" (!tenuto![B,^CGB]3 | !tenuto![A,^CGA]3) | %45
w: ||||
 !tenuto![DG^cd]3 | !tenuto![GBd]3 |!f! z (b/a/d'/d'/ |"_m.g." g'/d'/b/a/g/d/) | z (b/a/d'/d'/ | %50
w: |||||
"_m.g." g'/d'/b/a/g/d/) | z (b/a/d'/d'/ |"_m.g." g'/d'/b/a/g/d/) | %53
w: |||
"^Retenu"[Q:1/4=90]"^T" z3/2"_dim.                    molto" (.[bb']3/2 | %54
w: |
.[aa']3/2!8va(! .[d'd'']3/2 |.[g'g'']3/2 .[bb']3/2 |.[aa']3/2.[d'd'']3/2)!8va)! || %57
w: |||
"^a Tempo (Vif)"[Q:1/4=80]"^T" z3 | z3 | z3 | z3 |"^Peu à peu animé"!p! z"_marqué" .B,.A, | %62
w: |||||
 z[Q:1/4=85]"^T" .D2 | G3- | G2 z | z[Q:1/4=90]"^T" .[B,B].[A,A] |[Q:1/4=95]"^T" z [Dd]2 | [Gg]3- | %68
w: ||||||
 [Gg]2 z |[K:bass]"_molto cresc." z3/2[Q:1/4=100]"^T" .[B,,B,]3/2 | %70
w: ||
.[A,,A,]3/2[Q:1/4=105]"^T".[D,D]3/2 |.[G,G]3/2[K:treble][Q:1/4=110]"^T" .[B,B]3/2 | %72
w: ||
.[A,A]3/2[Q:1/4=105]"^T".[Dd]3/2 |[K:bass]"^Animé"!p! z[Q:1/4=120]"^T" .[D,=F,B,].[^C,E,A,] | %74
w: ||
!<(! .[E,^G,D].[=F,A,D]!<)!!f!.[_B,DG] |!p! z .[D,=F,B,].[^C,E,A,] | %76
w: ||
!<(! .[E,^G,D].[=F,A,D]!<)!!f!.[_B,DG] |[K:treble]!f! z .[B^db].[Aea] | %78
w: ||
!<(! [d=fd']([d^fd'][gg']-) | [gg'][=f=a=f'][e_be']!<)! | [d=bd']!>(! (g=f |e!>)!d)!>(! (G | %82
w: ||||
=FED)!>)! |[K:bass]!p! z .[D,=F,B,].[^C,E,A,] |!<(! .[E,^G,D].[=F,A,D]!<)!!f!.[_B,DG] | %85
w: |||
!p! z .[D,=F,B,].[^C,E,A,] |!<(! .[E,^G,D].[=F,A,D]!<)!!f!.[_B,DG] || %87
w: ||
[M:3/4][K:treble]!f! z2 [B^db]2 [Aea]2 |!<(! [dgd']2 [d^gd']2!<)!!ff! [=gd'g']2- || %89
w: ||
[M:3/8] [gd'g'][=f=f'][ee'] | [dd'](g=f | ed) z | z3 | z3 |!p!!>(! [GBdg]3- | [GBdg]3-!>)! | %96
w: |||||||
!pp!!pp! (.[bb']3 | .[aa']3 | .[d'd'']3) |!pp! [GBdg]3- | (.[bb']3 | .[aa']3 | .[d'd'']3) | %103
w: |||||||
 [GBdg]3- | (.[bb']3 | .[aa']3 | .[d'd'']3) |!pp! [GAcg]3- | [bb']3 | x3 | [aa']3 | z3 | z3 || %113
w: ||||||||||
[M:3/4][Q:1/4=65]"^T""^1er Tempo"!p! z2 (.[G,_D=F]2 .[G,CF]2 | %114
w: |
!<(! z2 .[G,_B,=F]2 .[G,B,_E]2)!<)! ||[M:3/8]!p! z/"^Vif"[Q:1/4=110]"^T" (B/A/d/g/) (b/ | %116
w: ||
a/d'/g'/)!8va(! (b'/a'/d''/ | g'')!8va)! z z!pp! | [G,B,D]3 |] %119
w: |||
V:2
 x10 |[M:3/4] (_B,,4- B,,>C, | _D,4- D,>_E, | _F,4- F,>_D, | _G,,4- G,,>_A,,) | (_B,,4- B,,>C, | %6
 _D,4- D,>_E,) | (=E,4- E,>A,, | D,,4- D,,>A,, | E,2) [G,A,CG]2 [F,A,CF]2- | %10
 [F,A,CF]2 [E,G,CE]2 [D,F,CD]2 | z2 [D,G,]4- | [D,G,]6- | [D,G,]2 [D,G,]4- | [D,G,]2 z2 z2 | %15
 (_B,,4- B,,>C, | _D,4- D,>_E,) | (=E,2 A,,2 E,,2) | (E,2 A,,2 E,,2) | (E,2 A,,2 D,,2) | %20
 E,2!<(! A,,2 ^C,,2 | ^C,,3 A,,!<)!E,G, | B,3!>(! (A,D)D!>)! ||[M:3/8] [A,_EG]3- | [A,_EG]3 | %25
 [=F,B,E]3- | [=F,B,E]3 | !tenuto![A,_EG]3- | [A,_EG]3 | [=F,B,E]3- | [F,B,E]3 | %31
 !tenuto![B,,,B,,]3 | !tenuto![A,,,A,,]3 | !tenuto![D,,D,]3 | !tenuto![D,,D,]3 | A,3- | A,3- | %37
 A,3 | z3 | A,3- | A,3 | A,3 | x3 | z (.E,.^F,- | F,.G,.A,-) | A,(.B,.^C | .D.E.F) | [E,B,D]3- | %48
 [E,B,D]3 | [G,B,]3- | [G,B,]3 | [E,G,]3- | [E,G,]3 | [C,=F,]3- | [C,=F,]3- | [C,=F,]3- | %56
 [C,=F,]3 || .C,,!tenuto!.^F,,,.C,, | !tenuto!.G,,,.C,,!tenuto!.^G,,, | .C,,!tenuto!.A,,,.C,, | %60
 !tenuto!._B,,,.C,,!tenuto!.=B,,, | .C,,!tenuto!.F,,,.C,, | !tenuto!.G,,,.C,,!tenuto!.^G,,, | %63
 .C,,!tenuto!.A,,,.C,, | !tenuto!._B,,,.C,,!tenuto!.=B,,, | .C,,!tenuto!.F,,,.C,, | %66
 !tenuto!.G,,,.C,,!tenuto!.^G,,, | .C,,!tenuto!.A,,,.C,, | !tenuto!._B,,,.C,,!tenuto!.=B,,, | %69
 .C,,!tenuto!.F,,,.C,, | !tenuto!.G,,,.C,,!tenuto!.^G,,, | .C,,!tenuto!.A,,,.C,, | %72
 !tenuto!._B,,,.C,,!tenuto!.=B,,, | .[G,,,G,,].[^G,,,^G,,].[A,,,A,,] | %74
 .[^A,,,^A,,].[B,,,B,,].[C,,C,] | .[G,,,G,,].[^G,,,^G,,].[A,,,A,,] | %76
 .[^A,,,^A,,].[B,,,B,,].[C,,C,] | z ^DE |[K:treble] =F^FG | _A=A_B | =B (G=F |ED)[K:bass] (G, | %82
=F,E,D,) | .[G,,,G,,].[^G,,,G,,].[A,,,A,,] | .[^A,,,^A,,].[B,,,B,,].[C,,C,] | %85
 .[G,,,G,,].[^G,,,G,,].[A,,,A,,] | .[^A,,,^A,,].[B,,,B,,].[C,,C,] || %87
[M:3/4] [^C,^E,B,^D]4 [D,^F,CE]2 | [=F,A,_EG]2 [^F,^A,=E^G]2[K:treble] B2 ||[M:3/8] !^!A!^!d!^!d | %90
 !^!g(G=F |[K:bass] ED)([G,,,G,,] | [=F,,,=F,,][E,,,E,,][D,,,D,,]) | [^C,,,^C,,]3- | %94
!ped! [^C,=F,B,D]3- | [^C,=F,B,D]3- | [^C,=F,B,D]3 | [^C,=F,B,D]3- | [^C,=F,B,D]3 | [^C,=F,B,D]3- | %100
 [^C,=F,B,D]3- | [C,F,B,D]3- | [^C,=F,B,D]3 | [=C,E,B,D]3- | [C,E,B,D]3- | [C,E,B,D]3- | %106
 [C,E,B,D]3 | [C,E,A,C]3- | [C,E,A,C]3 | [C,E,A,C]3- | [C,E,A,C]3!ped-up! | z3 | z3 || %113
[M:3/4] (B,,4- B,,>C, | _D,4- D,>_E,) ||[M:3/8] [G,,D,=E,]3- | [G,,D,E,]3- | [G,,D,E,]3- | %118
 [G,,D,E,]3 |] %119
V:3
 x10 |[M:3/4] x6 | x6 | x6 | x6 | x6 | x6 | x6 | [A,CG]6- | [A,CG]2 x4 | x6 | z2 D4- | D6- | %13
 D2 D4- | x2 ^A,2 B,2 | x6 | x6 | z2 [A,^CG]4 | z2 [A,^CG]4 | z2 [A,B,DG]4 | %20
 z2 !tenuto![A,B,EG]4- | [A,B,EG]6 | x6 ||[M:3/8] x3 | x3 | x3 | x3 | x3 | x3 | x3 | x3 | A,3 | %32
 x3 | x3 | x3 | !tenuto![=FA]3- | [=FA]3- | [=FA]3 | x3 | !tenuto![=FA]3- | [=FA]3- | [=FA]3 | x3 | %43
 x3 | x3 | x3 | x3 | (!tenuto![GBdg]3 | [FBdf]3) | (!tenuto![EGBe]3 | [DGBd]3) | %51
 (!tenuto![^CEG^c]3 | [B,EGB]3) | [A,C=FA]3- | [A,C=FA]3-!8va(! | [Ac=fa]3 | x3!8va)! || x3 | x3 | %59
 x3 | x3 | x3 | x3 | x3 | x3 | x3 | x3 | x3 | x3 |[K:bass] x3 | x3 | x3/2[K:treble] x3/2 | x3 | %73
[K:bass] x3 | x3 | x3 | x3 |[K:treble] x3 | x3 | _a x2 | x [AB]2- | [AB]2 [A,C]- | [A,C]2 z | %83
[K:bass] x3 | x3 | x3 | x3 ||[M:3/4][K:treble] x6 | x6 ||[M:3/8] x3 | x3 | x3 | x3 | x3 | x3 | x3 | %96
 [GBdg]3- | [GBdg]3- | [GBdg]3 | x3 | [GBdg]3- | [GBdg]3- | [GBdg]3 | x3 | [GBdg]3- | [GBdg]3- | %106
 [GBdg]3 | x3 | [GAcg]3- | [GAcg]3- | [GAcg]3 | x3 | x3 ||[M:3/4] x6 | x6 ||[M:3/8] [G,B,D]3- | %116
 [G,B,D]3-!8va(! | [GBd]3-!8va)! | x3 |] %119
V:4
 x10 |[M:3/4] x6 | x6 | x6 | x6 | x6 | x6 | x6 | x6 | x6 | x6 | z2 (C2 A,2- | A,2 ^A,2 B,2-) | %13
 B,2 C2 A,2- | A,2 x4 | x6 | x6 | x6 | x6 | x6 | x6 | x6 | x6 ||[M:3/8] x3 | x3 | x3 | x3 | x3 | %28
 x3 | x3 | x3 | x3 | x3 | x3 | x3 | x3 | x3 | x3 | x3 | x3 | x3 | x3 | x3 | x3 | x3 | x3 | x3 | %47
 x3 | x3 | x3 | x3 | x3 | x3 | x3 | x3/2!8va(! x3/2 | x3 | x3!8va)! || x3 | x3 | x3 | x3 | x3 | %62
 x3 | x3 | x3 | x3 | x3 | x3 | x3 |[K:bass] x3 | x3 | x3/2[K:treble] x3/2 | x3 |[K:bass] x3 | x3 | %75
 x3 | x3 |[K:treble] x3 | x3 | x3 | x3 | x3 | x3 |[K:bass] x3 | x3 | x3 | x3 || %87
[M:3/4][K:treble] x6 | x6 ||[M:3/8] x3 | x3 | x3 | x3 | x3 | x3 | x3 | x3 | x3 | x3 | x3 | x3 | %101
 x3 | x3 | x3 | x3 | x3 | x3 | x3 | x3 | x3 | x3 | x3 | x3 ||[M:3/4] x6 | x6 ||[M:3/8] x3 | %116
 x3/2!8va(! x3/2 | x!8va)! x2 | x3 |] %119
V:5
 x10 |[M:3/4] x6 | x6 | x6 | x6 | x6 | x6 | x6 | x6 | x6 | x6 | x2 z2 z3/2 (D,,/ | G,,4- G,,>D, | %13
 G,,4- G,,>D,, | G,,2) x4 | x6 | x6 | x6 | x6 | x6 | x6 | x6 | x6 ||[M:3/8] x3 | x3 | x3 | x3 | %27
 x3 | x3 | x3 | x3 | x3 | x3 | x3 | x3 | x3 | x3 | x3/2"^marqué" [^D,^D]3/2 | %38
[E,G,B,E]3/2[I:staff -1][B,B]3/2 | x3 | x3 | x3/2"^marqué"[I:staff +1] [^D,^D]3/2 | %42
[E,G,B,E]3/2[I:staff -1][Ee]3/2 | x3 | x3 | x3 | x3 | x3 | x3 | x3 | x3 | x3 | x3 | x3 | x3 | x3 | %56
 x3 || x3 | x3 | x3 | x3 | x3 | x3 | x3 | x3 | x3 | x3 | x3 | x3 | x3 | x3 | x3 | x3 | x3 | x3 | %75
 x3 | x3 | x[I:staff +1] [^E,^B,]2 |[K:treble] x3 | x3 | x3 | x2[K:bass] x | x3 | x3 | x3 | x3 | %86
 x3 ||[M:3/4] x6 | x4[K:treble] x2 ||[M:3/8] x3 | x3 |[K:bass] x3 | x3 | x3 | x3 | x3 | x3 | x3 | %98
 x3 | x3 | x3 | x3 | x3 | x3 | x3 | x3 | x3 | x3 | x3 | x3 | x3 | x3 | x3 ||[M:3/4] x6 | x6 || %115
[M:3/8] x3 | x3 | x3 | x3 |] %119
V:6
 x10 |[M:3/4] x6 | x6 | x6 | x6 | x6 | x6 | x6 | x6 | x6 | x6 | x6 | x6 | x6 | x6 | x6 | x6 | x6 | %18
 x6 | x6 | x6 | x6 | x6 ||[M:3/8] z z (C,- |C, =F,,2) | z z (G,,- |G,, D,,2) | z z (C,- | %28
C, =F,,2) | z z (G,,- |G,, D,,2) | x3 | x3 | x3 | x3 | [G,,,G,,D,]3- | [G,,,G,,D,]3 | [G,,,G,,]3- | %38
 [G,,,G,,]3 | [G,,,G,,D,]3- | [G,,,-G,,-D,]3 | [G,,,G,,]3- | [G,,,G,,]3 | [A,,,A,,]3- | %44
 [A,,,A,,]3- | [A,,,A,,]3- | [A,,,A,,]3 | [A,,,A,,]3- | [A,,,A,,]3 | [A,,,A,,]3- | [A,,,A,,]3- | %51
 [A,,,A,,]3- | [A,,,A,,]3 | [A,,,A,,]3- | [A,,,A,,]3 | [A,,,A,,]3- | [A,,,A,,]3 || x3 | x3 | x3 | %60
 x3 | x3 | x3 | x3 | x3 | x3 | x3 | x3 | x3 | x3 | x3 | x3 | x3 | x3 | x3 | x3 | x3 | %77
 !tenuto![^D,,^C,]3 |[K:treble] [_B,D]3 | [D=F]3- | [DF] x2 | x2[K:bass] x | x3 | x3 | x3 | x3 | %86
 x3 ||[M:3/4] x6 | x4[K:treble] [G,B,=F]2- ||[M:3/8] [G,B,=F]3 | x3 |[K:bass] x3 | x3 | x3 | %94
 [^C,,,^C,,]3 | x3 | x3 | x3 | x3 | x3 | x3 | ^C,,,3 | x3 | x3 | x3 | !tenuto!=C,,,3 | x3 | x3 | %108
 x3 | !tenuto!C,,,3 | x3 | x3 | x3 ||[M:3/4] x6 | x6 ||[M:3/8] x3 | x3 | x3 | G,,, z z |] %119
V:7
 x10 |[M:3/4] x6 | x6 | x6 | x6 | x6 | x6 | x6 | x6 | x6 | x6 | x6 | x6 | x6 | x6 | x6 | x6 | x6 | %18
 x6 | x6 | x6 | x6 | x6 ||[M:3/8] x3 | x3 | x3 | x3 | x3 | x3 | x3 | x3 | x3 | x3 | F,3 | =F,3 | %35
 B,3- | B,3- | B,3 | x3 | B,3- | B,3 | B,3 | x3 | x3 | x3 | x3 | x3 | x3 | x3 | x3 | x3 | x3 | x3 | %53
 x3 | x3 | x3 | x3 || x3 | x3 | x3 | x3 | x3 | x3 | x3 | x3 | x3 | x3 | x3 | x3 | x3 | x3 | x3 | %72
 x3 | x3 | x3 | x3 | x3 | x3 |[K:treble] x3 | x3 | x3 | x2[K:bass] x | x3 | x3 | x3 | x3 | x3 || %87
[M:3/4] x6 | x4[K:treble] x2 ||[M:3/8] x3 | x3 |[K:bass] x3 | x3 | x3 | x3 | x3 | x3 | x3 | x3 | %99
 x3 | x3 | x3 | x3 | x3 | x3 | x3 | x3 | x3 | x3 | x3 | x3 | x3 | x3 ||[M:3/4] x6 | x6 || %115
[M:3/8] x3 | x3 | x3 | x3 |] %119

